artwork-breath/artwork-breath-master/icons/22/panel/tusk-indicator.svg

<svg xmlns="http://www.w3.org/2000/svg" width="22" height="22" version="1.1">
 <defs>
  <style id="current-color-scheme" type="text/css">
   .ColorScheme-Text { color:#d3dae3; } .ColorScheme-Highlight { color:#4285f4; }
  </style>
 </defs>
 <path style="fill:currentColor" class="ColorScheme-Text" d="M 3.800781,3.0000002 C 3.357581,3.0000002 3,3.3575815 3,3.8007815 L 3,18.199219 C 3,18.642419 3.357581,19 3.800781,19 l 14.398438,0 C 18.642419,19 19,18.642419 19,18.199219 L 19,3.8007815 c 0,-0.4432 -0.357581,-0.8007813 -0.800781,-0.8007813 l -14.398438,0 z m 4,4.0000001 6.398438,0 C 14.642419,7.0000003 15,7.3575815 15,7.8007815 l 0,6.3984375 C 15,14.642419 14.642419,15 14.199219,15 L 7.800781,15 C 7.357581,15 7,14.642419 7,14.199219 L 7,7.8007815 c 0,-0.4432 0.357581,-0.8007812 0.800781,-0.8007812 z"/>
</svg>

<svg xmlns="http://www.w3.org/2000/svg" width="22" height="22"><defs><style id="current-color-scheme" type="text/css"></style></defs><path d="M3.8 3a.8.8 0 0 0-.8.8v14.4a.8.8 0 0 0 .8.8h14.4a.8.8 0 0 0 .8-.8V3.8a.8.8 0 0 0-.8-.8H3.8zm4 4h6.4a.8.8 0 0 1 .8.8v6.4a.8.8 0 0 1-.8.8H7.8a.8.8 0 0 1-.8-.8V7.8a.8.8 0 0 1 .8-.8z" fill="currentColor" color="#bebebe"/></svg>
